Sources/FrostedUI/Resources/Icons.xcassets/upinTilted12.imageset/upin-tilted-12.svg

<svg width="12" height="12" viewBox="0 0 12 12" fill="none" xmlns="http://www.w3.org/2000/svg" data-fui-icon="true">
  <path
    d="M0.219727 0.219727C0.51262 -0.0731667 0.98738 -0.0731667 1.28027 0.219727L11.7803 10.7197C12.0732 11.0126 12.0732 11.4874 11.7803 11.7803C11.4874 12.0732 11.0126 12.0732 10.7197 11.7803L8.58038 9.64092C8.46911 9.52965 8.27897 9.58259 8.24121 9.73535C7.9113 11.055 6.26752 11.5106 5.30566 10.5488L4.11552 9.35785C3.99835 9.2406 3.80829 9.2406 3.69111 9.35784L2.3125 10.7373C2.01968 11.0299 1.54479 11.0299 1.25195 10.7373C0.95906 10.4444 0.95906 9.96867 1.25195 9.67578L2.63064 8.29709C2.7478 8.17994 2.7478 7.98999 2.63064 7.87283L1.44043 6.68262C0.4787 5.7208 0.933429 4.07707 2.25293 3.74707C2.40556 3.7088 2.45815 3.5187 2.34688 3.40743L0.219727 1.28027C-0.0731667 0.98738 -0.0731667 0.51262 0.219727 0.219727ZM2.61719 5.20215C2.4287 5.24927 2.36365 5.48465 2.50098 5.62207L6.36621 9.4873C6.50351 9.6246 6.73875 9.56026 6.78613 9.37207L7.0497 8.3161C7.07521 8.21389 7.04525 8.1058 6.97077 8.03131L3.95615 5.0167C3.88158 4.94213 3.77333 4.91219 3.67104 4.93784L2.61719 5.20215ZM6.37793 1.36816C7.06136 0.684861 8.17014 0.684785 8.85352 1.36816L10.6211 3.13574C11.3043 3.81912 11.3043 4.92697 10.6211 5.61035L9.90842 6.32302C9.79126 6.44018 9.60131 6.44018 9.48416 6.32302L8.84787 5.68674C8.73072 5.56958 8.73072 5.37963 8.84787 5.26248L9.56055 4.5498C9.65798 4.45221 9.65798 4.29388 9.56055 4.19629L7.79297 2.42871C7.69539 2.33113 7.5371 2.33123 7.43945 2.42871L6.7258 3.14085C6.60861 3.2578 6.41883 3.2577 6.30176 3.14063L5.66537 2.50424C5.54817 2.38704 5.54822 2.197 5.66548 2.07986L6.37793 1.36816Z"
    fill="currentColor"
  />
</svg>

<svg xmlns="http://www.w3.org/2000/svg" width="12" height="12" fill="none" data-fui-icon="true" viewBox="0 0 12 12"><path fill="currentColor" d="M.22.22a.75.75 0 0 1 1.06 0l10.5 10.5a.75.75 0 1 1-1.06 1.06L8.58 9.64a.202.202 0 0 0-.339.095c-.33 1.32-1.973 1.776-2.935.814l-1.19-1.191a.3.3 0 0 0-.425 0l-1.378 1.38a.75.75 0 0 1-1.061-1.062l1.379-1.379a.3.3 0 0 0 0-.424l-1.19-1.19c-.962-.962-.508-2.606.812-2.936a.203.203 0 0 0 .094-.34L.22 1.28a.75.75 0 0 1 0-1.06m2.397 4.982a.25.25 0 0 0-.116.42l3.865 3.865a.25.25 0 0 0 .42-.115l.264-1.056a.3.3 0 0 0-.08-.285L3.957 5.017a.3.3 0 0 0-.285-.08zm3.76-3.834a1.75 1.75 0 0 1 2.477 0l1.767 1.768a1.75 1.75 0 0 1 0 2.474l-.713.713a.3.3 0 0 1-.424 0l-.636-.636a.3.3 0 0 1 0-.425l.713-.712a.25.25 0 0 0 0-.354L7.793 2.43a.25.25 0 0 0-.354 0l-.713.712a.3.3 0 0 1-.424 0l-.637-.637a.3.3 0 0 1 0-.424z"/></svg>
